X: 16
T:Da Cross Reel
M:4/4
L:1/8
S:Shetland
R:Reel
K:G
e|"D"fage d2 d2|"D"ABAF D3 f|"C"gfed c2 c2|"C"EDEF "G"G3:||!
A|"G"BG BG "D"A2 AF|"G"BG BG"D"A2 AF|"G"BG BG "D"A AF|"C"EDEF "G"G4|
"D"FGAc "G"BG B2|!"D"AF AF d2 d2|"D"FGAc "G"BG BG|"D"AF AF "G" G3||
A|"D"defg afde|"D"fdfg a2 af|!"D"defg afdf|"C"ec ef g2 ge|"D"defg afde|"
D"fdfg "A"a2 ag||
